value_images/wacky.svg

<?xml version="1.0" encoding="UTF-8" standalone="no"?>
<svg
   xmlns:dc="http://purl.org/dc/elements/1.1/"
   xmlns:cc="http://creativecommons.org/ns#"
   xmlns:rdf="http://www.w3.org/1999/02/22-rdf-syntax-ns#"
   xmlns:svg="http://www.w3.org/2000/svg"
   xmlns="http://www.w3.org/2000/svg"
   xmlns:sodipodi="http://sodipodi.sourceforge.net/DTD/sodipodi-0.dtd"
   xmlns:inkscape="http://www.inkscape.org/namespaces/inkscape"
   width="200"
   height="200"
   viewBox="0 0 52.916668 52.916666"
   version="1.1"
   id="svg8"
   inkscape:version="1.0.2-2 (e86c870879, 2021-01-15)"
   sodipodi:docname="wacky.svg">
  <defs
     id="defs2">
    <rect
       x="-261.71072"
       y="122.43186"
       width="44.251562"
       height="18.322396"
       id="rect878" />
    <rect
       x="-230.62218"
       y="74.079259"
       width="66.013542"
       height="16.801042"
       id="rect885" />
    <inkscape:path-effect
       effect="envelope"
       id="path-effect4658"
       is_visible="true"
       yy="true"
       xx="true"
       bendpath1="m -199.08406,108.42369 h 7.0057"
       bendpath2="m -192.07836,108.42369 v 6.75242"
       bendpath3="m -199.08406,115.17611 h 7.0057"
       bendpath4="m -199.08406,108.42369 v 6.75242" />
    <inkscape:path-effect
       effect="bend_path"
       id="path-effect4656"
       is_visible="true"
       bendpath="m -192.00142,114.60623 c 2.12577,-0.53066 4.48261,0.85111 7.0057,0"
       prop_scale="1"
       scale_y_rel="false"
       vertical="false"
       bendpath-nodetypes="cc" />
    <inkscape:path-effect
       effect="bounding_box"
       id="path-effect4654"
       is_visible="true"
       linkedpath=""
       visualbounds="false" />
  </defs>
  <sodipodi:namedview
     id="base"
     pagecolor="#ffffff"
     bordercolor="#666666"
     borderopacity="1.0"
     inkscape:pageopacity="0.0"
     inkscape:pageshadow="2"
     inkscape:zoom="4"
     inkscape:cx="107.15932"
     inkscape:cy="94.9492"
     inkscape:document-units="mm"
     inkscape:current-layer="layer1"
     showgrid="false"
     fit-margin-top="0"
     fit-margin-left="0"
     fit-margin-right="0"
     fit-margin-bottom="0"
     inkscape:window-width="1920"
     inkscape:window-height="1017"
     inkscape:window-x="-8"
     inkscape:window-y="-8"
     inkscape:window-maximized="1"
     showguides="false"
     inkscape:object-nodes="true"
     units="px"
     inkscape:snap-page="true"
     inkscape:document-rotation="0" />
  <metadata
     id="metadata5">
    <rdf:RDF>
      <cc:Work
         rdf:about="">
        <dc:format>image/svg+xml</dc:format>
        <dc:type
           rdf:resource="http://purl.org/dc/dcmitype/StillImage" />
        <dc:title />
      </cc:Work>
    </rdf:RDF>
  </metadata>
  <g
     inkscape:label="Layer 1"
     inkscape:groupmode="layer"
     id="layer1"
     transform="translate(249.80447,-91.409467)">
    <rect
       y="91.40947"
       x="-249.80447"
       height="52.916668"
       width="52.916668"
       id="rect5238-5"
       style="fill:#222222;fill-opacity:1;fill-rule:nonzero;stroke:none;stroke-width:0.5;stroke-linecap:butt;stroke-linejoin:round;stroke-miterlimit:4;stroke-dasharray:none;stroke-dashoffset:0;stroke-opacity:0.909449;paint-order:normal"
       rx="3.96875"
       ry="3.96875" />
    <rect
       style="fill:#89001c;fill-opacity:1;fill-rule:nonzero;stroke:none;stroke-width:0.5;stroke-linecap:butt;stroke-linejoin:round;stroke-miterlimit:4;stroke-dasharray:none;stroke-dashoffset:0;stroke-opacity:0.909449;paint-order:normal"
       id="rect5240-3"
       width="47.625"
       height="47.625"
       x="-247.15863"
       y="94.055298"
       rx="2.6458333"
       ry="2.6458333" />
    <path
       inkscape:connector-curvature="0"
       id="path5244-6"
       d="m -248.34926,128.45114 v 8.33437 c 0,3.07816 2.47808,5.55625 5.55625,5.55625 h 38.89375 c 3.07816,0 5.55625,-2.47809 5.55625,-5.55625 v -8.33437 z"
       style="fill:#222222;fill-opacity:1;fill-rule:nonzero;stroke:none;stroke-width:0.5;stroke-linecap:butt;stroke-linejoin:round;stroke-miterlimit:4;stroke-dasharray:none;stroke-dashoffset:0;stroke-opacity:0.909449;paint-order:normal" />
    <g
       aria-label="WACKY"
       transform="translate(17.11356,6.9419221)"
       id="text876"
       style="font-style:normal;font-weight:normal;font-size:10.5833px;line-height:1.25;font-family:sans-serif;white-space:pre;shape-inside:url(#rect878);fill:#89001c;fill-opacity:1;stroke:none">
      <path
         d="m -249.63539,124.75037 -2.42358,7.40831 h -1.84149 l -1.62983,-5.01648 -1.68275,5.01648 h -1.83091 l -2.43415,-7.40831 h 1.77799 l 1.67216,5.20699 1.74625,-5.20699 h 1.58749 l 1.69333,5.24932 1.72508,-5.24932 z"
         style="font-style:normal;font-variant:normal;font-weight:bold;font-stretch:normal;font-family:Montserrat;-inkscape-font-specification:'Montserrat Bold';fill:#89001c;fill-opacity:1"
         id="path882" />
      <path
         d="m -244.04743,130.57119 h -3.43957 l -0.65617,1.58749 H -249.9 l 3.30199,-7.40831 h 1.69333 l 3.31257,7.40831 h -1.79916 z m -0.53975,-1.30175 -1.17475,-2.83632 -1.17474,2.83632 z"
         style="font-style:normal;font-variant:normal;font-weight:bold;font-stretch:normal;font-family:Montserrat;-inkscape-font-specification:'Montserrat Bold';fill:#89001c;fill-opacity:1"
         id="path884" />
      <path
         d="m -237.37997,132.28568 q -1.13241,0 -2.05316,-0.48683 -0.91016,-0.49741 -1.43933,-1.36525 -0.51858,-0.87841 -0.51858,-1.97907 0,-1.10067 0.51858,-1.9685 0.52917,-0.87841 1.43933,-1.36524 0.92075,-0.49742 2.06375,-0.49742 0.96308,0 1.73566,0.33867 0.78316,0.33866 1.31233,0.97366 l -1.10067,1.016 q -0.75141,-0.86783 -1.86266,-0.86783 -0.68791,0 -1.22766,0.30691 -0.53975,0.29634 -0.84667,0.83609 -0.29633,0.53974 -0.29633,1.22766 0,0.68791 0.29633,1.22766 0.30692,0.53975 0.84667,0.84666 0.53975,0.29634 1.22766,0.29634 1.11125,0 1.86266,-0.87842 l 1.10067,1.016 q -0.52917,0.64558 -1.31233,0.98425 -0.78317,0.33866 -1.74625,0.33866 z"
         style="font-style:normal;font-variant:normal;font-weight:bold;font-stretch:normal;font-family:Montserrat;-inkscape-font-specification:'Montserrat Bold';fill:#89001c;fill-opacity:1"
         id="path886" />
      <path
         d="m -230.46908,129.24828 -0.99483,1.03716 v 1.87324 h -1.70391 v -7.40831 h 1.70391 v 3.46074 l 3.28083,-3.46074 h 1.90499 l -3.06916,3.30199 3.24908,4.10632 h -2.00025 z"
         style="font-style:normal;font-variant:normal;font-weight:bold;font-stretch:normal;font-family:Montserrat;-inkscape-font-specification:'Montserrat Bold';fill:#89001c;fill-opacity:1"
         id="path888" />
      <path
         d="m -222.31994,129.53402 v 2.62466 h -1.7145 v -2.64582 l -2.86807,-4.76249 h 1.82033 l 1.97907,3.29141 1.97908,-3.29141 h 1.68275 z"
         style="font-style:normal;font-variant:normal;font-weight:bold;font-stretch:normal;font-family:Montserrat;-inkscape-font-specification:'Montserrat Bold';fill:#89001c;fill-opacity:1"
         id="path890" />
    </g>
    <path
       id="path848"
       style="fill:#222222;fill-opacity:1;stroke:none;stroke-width:4.7811;stroke-linecap:round;paint-order:stroke fill markers"
       d="M 99.185547 31.75 A 60.684872 58.00002 0 0 0 38.5 89.75 A 60.684872 58.00002 0 0 0 99.185547 147.75 A 60.684872 58.00002 0 0 0 159.86914 89.75 A 60.684872 58.00002 0 0 0 99.185547 31.75 z M 99.181641 67.363281 C 110.34939 67.363281 120.48234 69.632002 128.02344 73.474609 C 135.56454 77.317217 140.82422 82.961389 140.82422 89.751953 C 140.82422 96.542517 135.56454 102.17888 128.02344 106.02148 C 120.48234 109.86409 110.34939 112.14062 99.181641 112.14062 C 88.013893 112.14062 77.888796 109.86409 70.347656 106.02148 C 62.806554 102.17888 57.541016 96.542517 57.541016 89.751953 C 57.541016 82.961389 62.806554 77.317217 70.347656 73.474609 C 77.888796 69.632002 88.013893 67.363281 99.181641 67.363281 z M 99.181641 72.138672 C 88.672211 72.138672 79.184123 74.346206 72.519531 77.742188 C 65.854939 81.13813 62.324219 85.496848 62.324219 89.751953 C 62.324219 94.007059 65.854939 98.365774 72.519531 101.76172 C 79.184123 105.1577 88.672211 107.35742 99.181641 107.35742 C 109.69107 107.35742 119.18892 105.1577 125.85352 101.76172 C 132.51811 98.365774 136.04687 94.007059 136.04688 89.751953 C 136.04688 85.496848 132.51811 81.13813 125.85352 77.742188 C 119.18892 74.346206 109.69107 72.138672 99.181641 72.138672 z M 99.0625 79.875 A 10.375 9.8749996 0 0 1 99.185547 79.875 A 10.375 9.8749996 0 0 1 109.56055 89.75 A 10.375 9.8749996 0 0 1 99.185547 99.625 A 10.375 9.8749996 0 0 1 88.810547 89.75 A 10.375 9.8749996 0 0 1 99.0625 79.875 z "
       transform="matrix(0.26458333,0,0,0.26458333,-249.80447,91.409467)" />
  </g>
</svg>

<svg xmlns="http://www.w3.org/2000/svg" width="200" height="200" viewBox="0 0 52.917 52.917"><defs><path id="a" d="M-261.711 122.432h44.252v18.322h-44.252z"/></defs><g transform="translate(249.804 -91.41)"><rect width="52.917" height="52.917" x="-249.804" y="91.409" rx="3.969" ry="3.969" style="fill:#222;fill-opacity:1;fill-rule:nonzero;stroke:none;stroke-width:.5;stroke-linecap:butt;stroke-linejoin:round;stroke-miterlimit:4;stroke-dasharray:none;stroke-dashoffset:0;stroke-opacity:.909449;paint-order:normal"/><rect width="47.625" height="47.625" x="-247.159" y="94.055" rx="2.646" ry="2.646" style="fill:#89001c;fill-opacity:1;fill-rule:nonzero;stroke:none;stroke-width:.5;stroke-linecap:butt;stroke-linejoin:round;stroke-miterlimit:4;stroke-dasharray:none;stroke-dashoffset:0;stroke-opacity:.909449;paint-order:normal"/><path d="M-248.35 128.451v8.335a5.544 5.544 0 0 0 5.557 5.556h38.894a5.544 5.544 0 0 0 5.556-5.556v-8.335z" style="fill:#222;fill-opacity:1;fill-rule:nonzero;stroke:none;stroke-width:.5;stroke-linecap:butt;stroke-linejoin:round;stroke-miterlimit:4;stroke-dasharray:none;stroke-dashoffset:0;stroke-opacity:.909449;paint-order:normal"/><g aria-label="WACKY" style="font-style:normal;font-weight:400;font-size:10.5833px;line-height:1.25;font-family:sans-serif;white-space:pre;shape-inside:url(#a);fill:#89001c;fill-opacity:1;stroke:none" transform="translate(17.114 6.942)"><path d="m-249.635 124.75-2.424 7.409h-1.841l-1.63-5.017-1.683 5.017h-1.83l-2.435-7.409h1.778l1.672 5.207 1.746-5.207h1.588l1.693 5.25 1.725-5.25zm5.588 5.821h-3.44l-.656 1.588h-1.757l3.302-7.409h1.693l3.313 7.409h-1.8zm-.54-1.302-1.175-2.836-1.175 2.836zm7.207 3.017q-1.132 0-2.053-.487-.91-.498-1.44-1.365-.518-.879-.518-1.98 0-1.1.519-1.968.529-.878 1.439-1.365.92-.498 2.064-.498.963 0 1.735.339.783.339 1.313.974l-1.101 1.016q-.751-.868-1.863-.868-.688 0-1.227.307-.54.296-.847.836-.296.54-.296 1.228 0 .687.296 1.227.307.54.847.847.54.296 1.227.296 1.112 0 1.863-.878l1.1 1.016q-.529.645-1.312.984-.783.339-1.746.339zm6.91-3.038-.994 1.037v1.874h-1.704v-7.409h1.704v3.461l3.28-3.46h1.906l-3.07 3.301 3.25 4.107h-2z" style="font-style:normal;font-variant:normal;font-weight:700;font-stretch:normal;font-family:Montserrat;-inkscape-font-specification:&quot;Montserrat Bold&quot;;fill:#89001c;fill-opacity:1"/><path d="M-222.32 129.534v2.625h-1.714v-2.646l-2.869-4.763h1.82l1.98 3.292 1.979-3.292h1.683z" style="font-style:normal;font-variant:normal;font-weight:700;font-stretch:normal;font-family:Montserrat;-inkscape-font-specification:&quot;Montserrat Bold&quot;;fill:#89001c;fill-opacity:1"/></g><path d="M99.186 31.75a60.685 58 0 0 0-60.686 58 60.685 58 0 0 0 60.686 58 60.685 58 0 0 0 60.683-58 60.685 58 0 0 0-60.683-58zm-.004 35.613c11.167 0 21.3 2.269 28.841 6.112 7.542 3.842 12.801 9.486 12.801 16.277 0 6.79-5.26 12.427-12.8 16.27-7.542 3.842-17.675 6.119-28.842 6.119-11.168 0-21.293-2.277-28.834-6.12-7.541-3.842-12.807-9.478-12.807-16.269 0-6.79 5.266-12.435 12.807-16.277 7.54-3.843 17.666-6.112 28.834-6.112zm0 4.776c-10.51 0-19.998 2.207-26.662 5.603-6.665 3.396-10.196 7.755-10.196 12.01s3.53 8.614 10.196 12.01c6.664 3.396 16.152 5.595 26.662 5.595 10.51 0 20.007-2.2 26.672-5.595 6.664-3.396 10.193-7.755 10.193-12.01s-3.529-8.614-10.193-12.01c-6.665-3.396-16.163-5.603-26.672-5.603zm-.12 7.736a10.375 9.875 0 0 1 .124 0 10.375 9.875 0 0 1 10.375 9.875 10.375 9.875 0 0 1-10.375 9.875A10.375 9.875 0 0 1 88.81 89.75a10.375 9.875 0 0 1 10.251-9.875z" style="fill:#222;fill-opacity:1;stroke:none;stroke-width:4.7811;stroke-linecap:round;paint-order:stroke fill markers" transform="translate(-249.804 91.41) scale(.26458)"/></g></svg>
